X: 1
T: The New Mown Meadows
R: reel
S: https://thesession.org/tunes/2706
M: 4/4
L: 1/8
K: Edor
|:\
BEED E2FA | B2cA BAFA | BEED E2EF | A2BA FEFA |\
BEED E2FA | B2cA BAFA | d2dB c2cB | AcBA [1 FEFA :|2 FAdf ||
|:\
e2ce fecf | e2cA BAFf | e2ce fecA | B2cA BAFf |\
e2ce fecf | e2cA BAFA | d2dB c2cB | AcBA [1 FAdf :|2 FEFA |]
